!!!COM:	Bach, Johann Sebastian
!!!CDT:	1685/02/21/-1750/07/28/
!!!OTL@@DE:	Singt dem Herrn ein neues Lied
!!!SCT:	BWV 411
!!!PC#:	246
!!!AGN:	chorale
**kern	**kern	**kern	**kern	**chordsymbol
*ICvox	*ICvox	*ICvox	*ICvox	*
*Ibass	*Itenor	*Ialto	*Isoprn	*
*I"Bass	*I"Tenor	*I"Alto	*I"Soprano	*
*>[A,A,B]	*>[A,A,B]	*>[A,A,B]	*>[A,A,B]	*>[A,A,B]
*>norep[A,B]	*>norep[A,B]	*>norep[A,B]	*>norep[A,B]	*>norep[A,B]
*>A	*>A	*>A	*>A	*>A
*clefF4	*clefGv2	*clefG2	*clefG2	*
*k[f#]	*k[f#]	*k[f#]	*k[f#]	*
*G:	*G:	*G:	*G:	*G:
*M4/4	*M4/4	*M4/4	*M4/4	*M4/4
*met(c)	*met(c)	*met(c)	*met(c)	*met(c)
*MM100	*MM100	*MM100	*MM100	*MM100
=1-	=1-	=1-	=1-	=1-
8GL	8BL	8dL	4g	GM
8AJ	8cJ	8cJ	.	Am(?5)
8BL	8dL	8BL	4g	GM
8AJ	8cJ	8cJ	.	Am(?5)
8GL	8BL	4d	4g	GM
8AJ	8cJ	.	.	A(mm)
8GL	8BL	4d	4d	GM
8F#J	8AJ	.	.	DM
=2	=2	=2	=2	=2
8EL	4B	16eLL	4g	Em
.	.	16f#JJ	.	Em
8DJ	.	4g	.	GM
8CL	8eL	.	4a	Amm
8DJ	8dJ	8f#	.	DM
2GG;	2d;	2g;	2b;	GM
=3	=3	=3	=3	=3
8GL	8BL	4d	8gL	GM
8F#	8AJ	.	8a	F#m(?5)
8G	4B	8dL	8b	GM
8EJ	.	8gJ	8cc#J	C#dm
8F#L	4A	4f#	4dd	DM
8EJ	.	.	.	DM
8DL	[4d	4a	4ff#	DM
16EL	.	.	.	DM
16F#JJ	.	.	.	DM
=4	=4	=4	=4	=4
8GL	8dL]	8bL	2ee	Emm
8EJ	16c#L	8gJ	.	AMm
.	16BJJ	.	.	AMm
4A	4c#	8eL	.	AMm
.	.	16aL	.	AMm
.	.	16gJJ	.	AMm
2D;	2A;	2f#;	2dd;	DM
=5:|!	=5:|!	=5:|!	=5:|!	=5:|!
*>B	*>B	*>B	*>B	*>B
4.cnX	4cnX	8gL	4ee	CM
.	.	8eJ	.	CM
.	4d	8f#L	4dd	D(Mm)
8B	.	8g#J	.	G#d
4.A	8eL	4a	4cc	Am
.	8d	.	.	D(?m)
.	8c	4e	4ee	Am
8GnX	8BJ	.	.	Em
=6	=6	=6	=6	=6
4.F	8AL	8aL	4dd	Dm
.	8BJ	8g#J	.	G#dd
.	8cL	[4a	4cc	FM
8E	16dL	.	.	Am
.	16eJJ	.	.	Am
8DL	8fnXL	8aL]	2b	Bdm
8BBJ	8dJ	16g#L	.	EMm
.	.	16f#JJ	.	EMm
4E	8BL	4g#X	.	EMm
.	16eL	.	.	EMm
.	16dJJ	.	.	EMm
=7	=7	=7	=7	=7
2AA;	2c;	2e;	2a;	Am
8AAL	4c	4e	4a	Am
8C	.	.	.	Am
8E	4B	4e	4g#	EMm
8DJ	.	.	.	EMm
=8	=8	=8	=8	=8
8CL	4c	4e	4a	Am
8BB	.	.	.	Am
8AA	[4B	4e	4b	EM
8GG#J	.	.	.	EM
8AAL	8BL]	4e	4cc	Am
8BB	16AL	.	.	Am
.	16G#JJ	.	.	Am
8C	[4A	4e	4cc	Am
8DJ	.	.	.	Am
=9	=9	=9	=9	=9
2E;	4A]	2e;	2b;	EM
.	4G#;	.	.	EM
8EL	8BL	[4e	4gnX	Em
8CJ	16cL	.	.	CMM
.	16BJJ	.	.	CMM
[4F	4A	8eL]	4a	FMM
.	.	16dL	.	FMM
.	.	16cJJ	.	FMM
=10	=10	=10	=10	=10
8FL]	8GL	8d	4b	GMm
8EJ	8BJ	4g	.	Em
8AL	16ALL	.	4cc	Amm
.	16BJ	.	.	Amm
8GJ	8cJ	16fLL	.	Amm
.	.	16eJJ	.	Amm
8FL	4.d	4a	4cc	Dmm
8DJ	.	.	.	Dmm
4G	.	4g	4b	GMm
.	8fnX	.	.	GMm
=11	=11	=11	=11	=11
2C;	2e;	2g;	2cc;	CM
!! The next three bass notes were transposed one generic step up. I fixed this (Nathaniel Condit-Schultz, March, 2018)
8BBL	4d	4g	4.dd	GM
8CJ	.	.	.	GM
4D	4A	4f#X	.	DMm
.	.	.	8cc	DMm
=12	=12	=12	=12	=12
8GG	4G	4d	4b	GM
4G	.	.	.	GM
.	4A	4d	4a	DM
8F#	.	.	.	DM
8EL	8BL	8eL	8gL	Em
8D	8cJ	8f#J	8aJ	DM
8C	4d	[4g	4b	GM
8BBJ	.	.	.	GM
=13	=13	=13	=13	=13
8CL	8eL	8gL]	2a	Amm
8AAJ	8cJ	16f#L	.	DMm
.	.	16eJJ	.	DMm
4D	8AL	4f#	.	DMm
.	16dL	.	.	DMm
.	16cJJ	.	.	DMm
2GG;	2B;	2d;	2g;	GM
==	==	==	==	==
*-	*-	*-	*-	*-
!!!hum2abc: -Q ''
!!!title: @{PC#}. @{OTL@@DE}
!!!YOR1: 371 vierstimmige Choralges&auml;nge von Johann Sebastian Bach, 
!!!YOR2: 4th ed. by Alfred D&ouml;rffel (Leipzig: Breitkopf und H&auml;rtel, 
!!!YOR2: c.1875). 178 pp. Plate "V.A.10".  reprint: J.S. Bach, 371 Four-Part 
!!!YOR4: Chorales (New York: Associated Music Publishers, Inc., c.1940).
!!!SMS: B&H, 4th ed, Alfred D&ouml;rffel, c.1875, plate V.A.10
!!!EED:  Craig Stuart Sapp
!!!EEV:  2009/05/22
!!! **chordsymbol annotations generated by the FlexibleChoraleHarmonicAnalysis package.
!!! Condit-Schultz, Ju, and Fujinaga, ISMIR (2018)
!!! Created on Sat Mar 02 11:23:33 2019
